X: 24801
T: Maggie In The Woods
R: polka
M: 2/4
K: Gmajor
M: 12/8
|:G3 G2 A B2 g gfe|d2 B BAB d2 B BAB|
G3 G2 A B2 g gfe|1 d2 B ABA G2 D E2 D:|2 d2 B ABA G3 GBd||
|:g2 f e2 d e2 f gfe|d2 B BAB d2 B BAB|
g2 f e2 d e2 f gfe|1 d2 B ABA G3 GBd:|2 a2 g b3 age dBA||

